public/images/hero_area/star_3.svg

<svg width="54" height="46" viewBox="0 0 54 46" fill="none" xmlns="http://www.w3.org/2000/svg">
<path d="M40.4708 0C34.0714 10.8962 30.5357 16.33 26.9708 16.33C23.4058 16.33 19.8701 10.8962 13.5 0C19.8701 10.8962 22.9091 16.6462 21.1266 19.665C19.3442 22.6838 12.7695 23 0 23C13.237 23 19.8117 23.3162 21.3019 26.6512C22.7045 29.7562 19.6656 35.4775 13.5 46C19.8993 35.1037 23.4351 29.67 27 29.67C30.5649 29.67 34.1007 35.1037 40.5 46C33.7208 34.4137 30.7403 28.6637 33.2532 25.7887C35.474 23.2587 42.0195 23 54 23C40.5 23 33.9253 22.655 32.6104 19.1187C31.4123 15.9562 34.4513 10.2638 40.4708 0Z" fill="white"/>
</svg>

<svg xmlns="http://www.w3.org/2000/svg" width="54" height="46" fill="none"><path fill="#fff" d="M40.47 0c-6.399 10.896-9.934 16.33-13.5 16.33-3.564 0-7.1-5.434-13.47-16.33 6.37 10.896 9.41 16.646 7.627 19.665C19.344 22.684 12.77 23 0 23c13.237 0 19.812.316 21.302 3.651C22.704 29.756 19.666 35.477 13.5 46c6.4-10.896 9.935-16.33 13.5-16.33 3.565 0 7.1 5.434 13.5 16.33-6.78-11.586-9.76-17.336-7.247-20.211C35.474 23.259 42.02 23 54 23c-13.5 0-20.075-.345-21.39-3.881-1.198-3.163 1.841-8.855 7.86-19.119Z"/></svg>
